img/tab-icons/Seating.svg

<svg width="24" height="24" viewBox="0 0 24 24" fill="none" xmlns="http://www.w3.org/2000/svg">
<path d="M14.5 2H8.5C6.57 2 5 3.57 5 5.5V9.57C5.86 9.79 6.5 10.57 6.5 11.5V5.5C6.5 4.4 7.4 3.5 8.5 3.5H14.5C15.6 3.5 16.5 4.4 16.5 5.5V11.5C16.5 10.57 17.14 9.79 18 9.57V5.5C18 3.57 16.43 2 14.5 2Z" fill="#52525A"/>
<path d="M5.12988 17.5V19.5C5.12988 20.6 6.02988 21.5 7.12988 21.5H8.12988C9.23988 21.5 10.1299 20.6 10.1299 19.5V17.5H5.12988ZM8.62988 19.5C8.62988 19.78 8.40988 20 8.12988 20H7.12988C6.85988 20 6.62988 19.78 6.62988 19.5V19H8.62988V19.5Z" fill="#52525A"/>
<path d="M13.1299 17.5V19.5C13.1299 20.6 14.0299 21.5 15.1299 21.5H16.1299C17.2399 21.5 18.1299 20.6 18.1299 19.5V17.5H13.1299ZM16.6299 19.5C16.6299 19.78 16.4099 20 16.1299 20H15.1299C14.8599 20 14.6299 19.78 14.6299 19.5V19H16.6299V19.5Z" fill="#52525A"/>
<path d="M18.5 8C18.33 8 18.16 8.01 18 8.04C17.45 8.12 16.93 8.32 16.5 8.64C15.59 9.27 15 10.32 15 11.5C15 11.78 14.78 12 14.5 12H8.5C8.22 12 8 11.78 8 11.5C8 10.32 7.41 9.27 6.5 8.64C6.07 8.32 5.55 8.12 5 8.04C4.84 8.01 4.67 8 4.5 8C2.57 8 1 9.57 1 11.5V15.5C1 17.43 2.57 19 4.5 19H18.5C20.43 19 22 17.43 22 15.5V11.5C22 9.57 20.43 8 18.5 8ZM20.5 15.5C20.5 16.6 19.6 17.5 18.5 17.5H4.5C3.4 17.5 2.5 16.6 2.5 15.5V11.5C2.5 10.4 3.4 9.5 4.5 9.5C4.67 9.5 4.84 9.52 5 9.57C5.86 9.79 6.5 10.57 6.5 11.5C6.5 12.6 7.4 13.5 8.5 13.5H14.5C15.6 13.5 16.5 12.6 16.5 11.5C16.5 10.57 17.14 9.79 18 9.57C18.16 9.52 18.33 9.5 18.5 9.5C19.6 9.5 20.5 10.4 20.5 11.5V15.5Z" fill="#52525A"/>
</svg>

<svg width="24" height="24" fill="none" xmlns="http://www.w3.org/2000/svg"><path d="M14.5 2h-6C6.57 2 5 3.57 5 5.5v4.07c.86.22 1.5 1 1.5 1.93v-6c0-1.1.9-2 2-2h6c1.1 0 2 .9 2 2v6c0-.93.64-1.71 1.5-1.93V5.5C18 3.57 16.43 2 14.5 2zM5.13 17.5v2c0 1.1.9 2 2 2h1a2 2 0 0 0 2-2v-2h-5zm3.5 2c0 .28-.22.5-.5.5h-1c-.27 0-.5-.22-.5-.5V19h2v.5zM13.13 17.5v2c0 1.1.9 2 2 2h1a2 2 0 0 0 2-2v-2h-5zm3.5 2c0 .28-.22.5-.5.5h-1c-.27 0-.5-.22-.5-.5V19h2v.5z" fill="#52525A"/><path d="M18.5 8c-.17 0-.34.01-.5.04-.55.08-1.07.28-1.5.6-.91.63-1.5 1.68-1.5 2.86 0 .28-.22.5-.5.5h-6c-.28 0-.5-.22-.5-.5 0-1.18-.59-2.23-1.5-2.86-.43-.32-.95-.52-1.5-.6-.16-.03-.33-.04-.5-.04C2.57 8 1 9.57 1 11.5v4C1 17.43 2.57 19 4.5 19h14c1.93 0 3.5-1.57 3.5-3.5v-4C22 9.57 20.43 8 18.5 8zm2 7.5c0 1.1-.9 2-2 2h-14c-1.1 0-2-.9-2-2v-4c0-1.1.9-2 2-2 .17 0 .34.02.5.07.86.22 1.5 1 1.5 1.93 0 1.1.9 2 2 2h6c1.1 0 2-.9 2-2 0-.93.64-1.71 1.5-1.93.16-.05.33-.07.5-.07 1.1 0 2 .9 2 2v4z" fill="#52525A"/></svg>
